resources/haticons/SVG/device_hub.svg

<!-- Generated by IcoMoon.io -->
<svg version="1.1" xmlns="http://www.w3.org/2000/svg" width="24" height="24" viewBox="0 0 24 24">
<title>device_hub</title>
<path d="M17.016 15.984h3.984v5.016h-5.016v-3.047l-3.984-4.219-3.984 4.219v3.047h-5.016v-5.016h3.984l4.031-3.984v-3.188q-0.891-0.328-1.453-1.078t-0.563-1.734q0-1.219 0.891-2.109t2.109-0.891 2.109 0.891 0.891 2.109q0 0.984-0.563 1.734t-1.453 1.078v3.188z"></path>
</svg>

<svg xmlns="http://www.w3.org/2000/svg" width="24" height="24"><path d="M17.016 15.984H21V21h-5.016v-3.047L12 13.734l-3.984 4.219V21H3v-5.016h3.984L11.015 12V8.812q-.891-.328-1.453-1.078T8.999 6q0-1.219.891-2.109T11.999 3t2.109.891T14.999 6q0 .984-.563 1.734t-1.453 1.078V12z"/></svg>
